X:1
T:Devil Winston
M:4/4
L:1/4
K:D
 D/2D/2 B,2 C| D2 B,2| D/2D/2 B,2 C| D3 z| F G/2G/2 F F| D2 B, B,/2B,/2|\
 C3/2 C/2 D/4D/4 D/2 C| B,3 z| D2 B, C| D2 C C| D2 B, C| D3 z| G/2G/2 F2 D|\
 D2 B, B,/2B,/2| C C/2C/2 C D| B,3 z|
